src/images/choose.svg

<svg width="24" height="24" viewBox="0 0 24 24" fill="none" xmlns="http://www.w3.org/2000/svg">
<path d="M18.9392 10.0226V20.3376C18.9392 20.6321 18.8812 20.9237 18.7685 21.1958C18.6558 21.4678 18.4906 21.715 18.2824 21.9233C18.0742 22.1315 17.827 22.2967 17.5549 22.4093C17.2828 22.522 16.9913 22.58 16.6968 22.58H3.2424C2.64768 22.58 2.07731 22.3438 1.65678 21.9233C1.23625 21.5027 1 20.9324 1 20.3376V6.88327C1 6.28855 1.23625 5.71818 1.65678 5.29765C2.07731 4.87712 2.64768 4.64087 3.2424 4.64087H12.6313" stroke="#FFCC29" stroke-width="2" stroke-linecap="round" stroke-linejoin="round"/>
<path d="M22.9258 0.723006C22.8415 0.630358 22.7392 0.555766 22.6253 0.50374C22.5113 0.451714 22.388 0.423334 22.2627 0.420313C22.1375 0.417293 22.0129 0.439696 21.8966 0.486168C21.7802 0.532639 21.6745 0.602216 21.5858 0.690692L20.872 1.40103C20.7855 1.48759 20.7369 1.60496 20.7369 1.72734C20.7369 1.84972 20.7855 1.96709 20.872 2.05366L21.5264 2.70687C21.5693 2.74996 21.6203 2.78416 21.6764 2.80749C21.7326 2.83082 21.7928 2.84283 21.8536 2.84283C21.9144 2.84283 21.9746 2.83082 22.0308 2.80749C22.0869 2.78416 22.1379 2.74996 22.1808 2.70687L22.8768 2.01442C23.2288 1.663 23.2617 1.09058 22.9258 0.723006ZM19.4287 2.84362L9.01119 13.2419C8.94803 13.3048 8.90212 13.3829 8.87789 13.4686L8.39602 14.9037C8.38448 14.9427 8.38366 14.984 8.39366 15.0234C8.40365 15.0627 8.42409 15.0987 8.45281 15.1274C8.48153 15.1561 8.51747 15.1766 8.55684 15.1865C8.59621 15.1965 8.63754 15.1957 8.67649 15.1842L10.1105 14.7023C10.1963 14.6781 10.2744 14.6322 10.3373 14.5691L20.7364 4.15119C20.8326 4.05396 20.8865 3.92271 20.8865 3.78593C20.8865 3.64915 20.8326 3.51789 20.7364 3.42066L20.1622 2.84362C20.0648 2.74655 19.9329 2.69203 19.7954 2.69203C19.6579 2.69203 19.526 2.74655 19.4287 2.84362Z" fill="#FFCC29"/>
</svg>

<svg xmlns="http://www.w3.org/2000/svg" width="24" height="24" fill="none"><path stroke="#FFCC29" stroke-linecap="round" stroke-linejoin="round" stroke-width="2" d="M18.94 10.023v10.315a2.243 2.243 0 0 1-2.243 2.242H3.242A2.24 2.24 0 0 1 1 20.338V6.883a2.24 2.24 0 0 1 2.242-2.242h9.39"/><path fill="#FFCC29" d="M22.926.723a.927.927 0 0 0-1.34-.032l-.714.71a.46.46 0 0 0 0 .653l.654.653a.46.46 0 0 0 .655 0l.696-.693c.352-.351.385-.923.049-1.291m-3.497 2.12L9.01 13.243a.5.5 0 0 0-.133.227l-.482 1.435a.226.226 0 0 0 .28.28l1.435-.482a.5.5 0 0 0 .226-.133l10.4-10.418a.52.52 0 0 0 0-.73l-.575-.577a.52.52 0 0 0-.733 0"/></svg>
